public/files/perm/themes/base/zen/icons/edit_note.svg

<svg enable-background="new 0 0 24 24" fill="#d40055" height="40" viewBox="0 0 24 24" width="40" xmlns="http://www.w3.org/2000/svg"><path d="m0 0h24v24h-24z" fill="none"/><path d="m3 10h11v2h-11zm0-2h11v-2h-11zm0 8h7v-2h-7zm15.01-3.13 1.41-1.41 2.12 2.12-1.41 1.41zm-.71.71-5.3 5.3v2.12h2.12l5.3-5.3z"/></svg>

<svg xmlns="http://www.w3.org/2000/svg" enable-background="new 0 0 24 24" height="40px" viewBox="0 0 24 24" width="40px" fill="#d40055"><rect fill="none" height="24" width="24"/><path d="M3,10h11v2H3V10z M3,8h11V6H3V8z M3,16h7v-2H3V16z M18.01,12.87l1.41-1.41l2.12,2.12l-1.41,1.41L18.01,12.87z M17.3,13.58 l-5.3,5.3V21h2.12l5.3-5.3L17.3,13.58z"/></svg>
